flaticon/medical/first-aid-kit.svg

<svg xmlns="http://www.w3.org/2000/svg" width="32" height="32" viewBox="0 0 24 24">
    <path d="M 14 12 L 10 12 L 10 14.800781 L 7.199219 14.800781 L 7.199219 18.800781 L 10 18.800781 L 10 21.601562 L 14 21.601562 L 14 18.800781 L 16.800781 18.800781 L 16.800781 14.800781 L 14 14.800781 Z M 16 15.601562 L 16 18 L 13.199219 18 L 13.199219 20.800781 L 10.800781 20.800781 L 10.800781 18 L 8 18 L 8 15.601562 L 10.800781 15.601562 L 10.800781 12.800781 L 13.199219 12.800781 L 13.199219 15.601562 Z M 16 15.601562"/>
    <path d="M 17.457031 4.398438 C 16.898438 1.871094 14.613281 0 12 0 C 9.386719 0 7.101562 1.871094 6.542969 4.398438 L 0 4.398438 L 0 24 L 24 24 L 24 4.398438 Z M 12 0.800781 C 14.183594 0.800781 16.101562 2.316406 16.640625 4.398438 L 7.359375 4.398438 C 7.898438 2.316406 9.816406 0.800781 12 0.800781 Z M 23.199219 23.199219 L 0.800781 23.199219 L 0.800781 10.398438 L 3.199219 10.398438 L 3.199219 12 L 7.199219 12 L 7.199219 10.398438 L 16.800781 10.398438 L 16.800781 12 L 20.800781 12 L 20.800781 10.398438 L 23.199219 10.398438 Z M 6.398438 9.601562 L 4 9.601562 L 4 8.800781 L 6.398438 8.800781 Z M 6.398438 10.398438 L 6.398438 11.199219 L 4 11.199219 L 4 10.398438 Z M 20 9.601562 L 17.601562 9.601562 L 17.601562 8.800781 L 20 8.800781 Z M 20 10.398438 L 20 11.199219 L 17.601562 11.199219 L 17.601562 10.398438 Z M 20.800781 9.601562 L 20.800781 8 L 16.800781 8 L 16.800781 9.601562 L 7.199219 9.601562 L 7.199219 8 L 3.199219 8 L 3.199219 9.601562 L 0.800781 9.601562 L 0.800781 5.199219 L 23.199219 5.199219 L 23.199219 9.601562 Z M 20.800781 9.601562"/>
</svg>

<svg xmlns="http://www.w3.org/2000/svg" width="32" height="32" viewBox="0 0 24 24">
    <path d="M14 12h-4v2.8H7.2v4H10v2.802h4V18.8h2.8v-4H14zm2 3.602V18h-2.8v2.8h-2.4V18H8v-2.398h2.8V12.8h2.4v2.8zm0 0"/>
    <path d="M17.457 4.398C16.898 1.871 14.613 0 12 0S7.102 1.871 6.543 4.398H0V24h24V4.398zM12 .801c2.184 0 4.102 1.515 4.64 3.597H7.36C7.897 2.316 9.815.801 12 .801zm11.2 22.398H.8V10.4h2.4V12h4v-1.602h9.6V12h4v-1.602h2.4zM6.397 9.602H4V8.8h2.398zm0 .796v.801H4v-.8zM20 9.602h-2.398V8.8H20zm0 .796v.801h-2.398v-.8zm.8-.796V8h-4v1.602H7.2V8h-4v1.602H.8V5.199h22.4v4.403zm0 0"/>
</svg>
